X:1
T:Lowlands of Holland
M:4/4
L:1/8
K:G
 E3/2- F/2| G2 G2 A3/2- G/2E-F| A3- B d2e-d| B2A-F E2 E2| D6| E2| G2 G2 A3/2- G/2E-F|\
 A3 B d2e-d| B2 AF E2 E2| E6| A2| B2 e2 e2d-c| A3 B d2e-d| B2A-F E2 E2|\
 D6| E3/2 F/2| G3- BA-FE-F| A3- B d2e-d| B2A-F E2 E2| E6||
